X:92
T:92. Rolled Cascade (2nds CW) — arpeggio both hands
T:RH eighth arpeggio flows over LH quarter arpeggio — full 7-mode cycle
C:Contrapuntal upper/lower voices
M:4/4
L:1/8
Q:1/4=96
%%score {V1 V2}
V:V1 clef=treble
V:V2 clef=bass
K:C
[V:V1] "C" c e g c' c e g c' | "Dm" d f a d' d f a d' | "Em" e g b e' e g b e' | "F" f a c' f' f a c' f' | "G" g b d' g' g b d' g' | "Am" a c' e' a' a c' e' a' | "B°" B d f b B d f b | "C" c e g c' c e g c' |]
[V:V2] "_8"C,2 E,2 G,2 C2 | "_8"D,2 F,2 A,2 D2 | "_8"E,2 G,2 B,2 E2 | "_8"F,2 A,2 C2 F2 | "_8"G,2 B,2 D2 G2 | "_8"A,2 C2 E2 A2 | "_8"B,2 D2 F2 B2 | "_8"C,2 E,2 G,2 C2 |]

